X: 17531
T: Hills Of Tara, The
R: barndance
M: 4/4
K: Gmajor
|:B>c|d2 G2 G>A (3BAG|c2 E2 E2 A>G|F>GA>B c>Bc>d|(3efe d2 B^>AB>c|
d2 G2 G>A (3BAG|c2 E2 E2- E>G|F>GA>B c>AF>G|(3ABA G2 G2:|
|:(3Bcd|g2 g2 f2 f2|e>fe>d A2 A>G|F>GA>B c>Bc>d|(3efe d2 B^>AB>c|
g>G (3GGG f>F (3FFF|e2 (3fed A2- A>G|F>GA>B c>AF>G|(3ABA G2 G2:|

